!!!COM: Music21
!!!OTL: waltz_Huggaremamma
!!!OMV: waltz_Huggaremamma
**kern
*clefG2
*k[]
*M3/4
=1
4cc
8aL
8ccJ
4b
=
8g#XL
8bJ
4.a
8gg
=
8ff#XL
8eeJ
8dd#XL
8ffnJ
[4ee
=
4ee]
4.b
8ddn
=
8ccL
8bJ
8ccL
8ddJ
4ee
=
8ffL
8eeJ
8ddL
8ccJ
8bL
8ccJ
=
8aL
8g#XJ
8aL
8bJ
8ccL
8aJ
!!linebreak:original
=
8bL
8gJ
2e
=
4cc
8aL
8ccJ
4b
=
8g#XL
8bJ
4.a
8gg
=
8ff#XL
8eeJ
8dd#XL
8ffnJ
[4ee
=
4ee]
4.b
8ddn
=
8ccL
8bJ
8ccL
8ddJ
4ee
=
4cc
4b
4a
=
8g#XL
8aJ
8bL
8ccJ
[4a
!!linebreak:original
=
*M3/4
4cc
8aL]
8ccJ
4b
=
8g#XL
8bJ
4.a
8gg
=
8ff#XL
8eeJ
8dd#XL
8ffnJ
[4ee
=
4ee]
4.b
8ddn
=
8ccL
8bJ
8ccL
8ddJ
4ee
=
8ffL
8eeJ
8ddL
8ccJ
8bL
8ccJ
=
8aL
8g#XJ
8aL
8bJ
8ccL
8aJ
!!linebreak:original
=
8bL
8gJ
2e
=
4cc
8aL
8ccJ
4b
=
8g#XL
8bJ
4.a
8gg
=
8ff#XL
8eeJ
8dd#XL
8ffnJ
[4ee
=
4ee]
4.b
8ddn
=
8ccL
8bJ
8ccL
8ddJ
4ee
=
4cc
4b
4a
=
8g#XL
8aJ
8bL
8ccJ
[4a
=||
2.a]
!!linebreak:original
=
4aa
8bbL
8aaJ
4gg
=
8ddL
8ggJ
4ee
4cc
=
4ee
8ffL
8eeJ
8ddL
8ccJ
=
8bL
8ccJ
4a
4e
=
4.a
8b
8ccL
8bJ
=
8ccL
8ddJ
4ee
4gg
=
8ff#XL
8eeJ
8dd#XL
8ffnJ
[4ee
=
2ee]
4b
!!linebreak:original
=
4aa
8bbL
8aaJ
4gg
=
8ddL
8ggJ
4ee
4cc
=
4ee
8ffL
8eeJ
8ddL
8ccJ
=
8bL
8ccJ
4a
4e
=
4.a
8b
8ccL
8bJ
=
8ccL
8ddJ
4ee
4cc
=
4b
4a
8g#XL
8aJ
=
*M3/4
4cc
8aL
8ccJ
4b
!!linebreak:original
=
8g#XL
8bJ
4.a
8gg
=
8ff#XL
8eeJ
8dd#XL
8ffnJ
[4ee
=
4ee]
4.b
8ddn
=
8ccL
8bJ
8ccL
8ddJ
4ee
=
8ffL
8eeJ
8ddL
8ccJ
8bL
8ccJ
=
8aL
8g#XJ
8aL
8bJ
8ccL
8aJ
=
8bL
8gJ
2e
!!linebreak:original
=
4cc
8aL
8ccJ
4b
=
8g#XL
8bJ
4.a
8gg
=
8ff#XL
8eeJ
8dd#XL
8ffnJ
[4ee
=
4ee]
4.b
8ddn
=
8ccL
8bJ
8ccL
8ddJ
4ee
=
4cc
4b
4a
=
8g#XL
8aJ
8bL
8ccJ
[4a
=
*M3/4
4cc
8aL]
8ccJ
4b
!!linebreak:original
=
8g#XL
8bJ
4.a
8gg
=
8ff#XL
8eeJ
8dd#XL
8ffnJ
[4ee
=
4ee]
4.b
8ddn
=
8ccL
8bJ
8ccL
8ddJ
4ee
=
8ffL
8eeJ
8ddL
8ccJ
8bL
8ccJ
=
8aL
8g#XJ
8aL
8bJ
8ccL
8aJ
=
8bL
8gJ
2e
!!linebreak:original
=
4cc
8aL
8ccJ
4b
=
8g#XL
8bJ
4.a
8gg
=
8ff#XL
8eeJ
8dd#XL
8ffnJ
[4ee
=
4ee]
4.b
8ddn
=
8ccL
8bJ
8ccL
8ddJ
4ee
=
4cc
4b
4a
=
8g#XL
8aJ
8bL
8ccJ
[4a
=||
2.a]
=
4aa
8bbL
8aaJ
4gg
!!pagebreak:original
=
8ddL
8ggJ
4ee
4cc
=
4ee
8ffL
8eeJ
8ddL
8ccJ
=
8bL
8ccJ
4a
4e
=
4.a
8b
8ccL
8bJ
=
8ccL
8ddJ
4ee
4gg
=
8ff#XL
8eeJ
8dd#XL
8ffnJ
[4ee
=
2ee]
4b
=
4aa
8bbL
8aaJ
4gg
=
8ddL
8ggJ
4ee
4cc
!!linebreak:original
=
4ee
8ffL
8eeJ
8ddL
8ccJ
=
8bL
8ccJ
4a
4e
=
4.a
8b
8ccL
8bJ
=
8ccL
8ddJ
4ee
4cc
=
4b
4a
8g#XL
8aJ
=||
8bL
8ccJ
2a
=
*-
